; generated by PrusaSlicer 2.8.0+win64 on 2024-08-29 at 15:52:47 UTC


;
;
; 

; external perimeters extrusion width = 0.65mm
; perimeters extrusion width = 0.65mm
; infill extrusion width = 0.65mm
; solid infill extrusion width = 0.65mm
; top infill extrusion width = 0.60mm
; first layer extrusion width = 0.65mm

M73 P0 R13
M73 C0
M73 Q0 S13
M73 D8
M201 X1000 Y1000 Z200 E5000 ; sets maximum accelerations, mm/sec^2
M203 X200 Y200 Z12 E120 ; sets maximum feedrates, mm / sec
M204 S1250 T1250 ; sets acceleration (S) and retract acceleration (R), mm/sec^2
M205 X8.00 Y8.00 Z0.40 E4.50 ; sets the jerk limits, mm/sec
M205 S0 T0 ; sets the minimum extruding and travel feed rate, mm/sec

; printing object storm_trooper_keyring.stl id:0 copy 0
; stop printing object storm_trooper_keyring.stl id:0 copy 0

;TYPE:Custom
M862.3 P "MK3S" ; printer model check
M862.1 P0.6 ; nozzle diameter check
M115 U3.14.0 ; tell printer latest fw version
G90 ; use absolute coordinates
M83 ; extruder relative mode
M104 S240 ; set extruder temp
M140 S85 ; set bed temp
M190 S85 ; wait for bed temp
M109 S240 ; wait for extruder temp
G28 W ; home all without mesh bed level
G80 X102.788 Y80.0993 W44.423 H49.7984 ; mesh bed levelling

G1 Z0.2 F720
G1 Y-3 F1000 ; go outside print area
G92 E0
G1 X60 E9 F1000 ; intro line
G1 X100 E12.5 F1000 ; intro line
M73 D7

G92 E0
M221 S95
G21 ; set units to millimeters
G90 ; use absolute coordinates
M83 ; use relative distances for extrusion

M900 K0.04 ; Filament gcode LA 1.5
M900 K24 ; Filament gcode LA 1.0




M107
;LAYER_CHANGE
;Z:0.2
;HEIGHT:0.2
G1 E-1 F2100
G1 Z.4 F720
G1 X110.206 Y84.261 F10800
G1 Z.2 F720
G1 E1 F1500
M204 S800
;TYPE:Skirt/Brim
;WIDTH:0.65
G1 F1200
G1 X111.616 Y82.789 E.10289
G1 X112.435 Y82.103 E.05393
G1 X113.338 Y81.485 E.05524
G1 X114.334 Y80.966 E.05669
G1 X115.442 Y80.587 E.05911
G1 X116.905 Y80.403 E.07443
G1 X133.328 Y80.415 E.82901
G1 X134.558 Y80.587 E.06269
M73 P1 R13
M73 Q1 S13
G1 X135.323 Y80.827 E.04047
G1 X136.662 Y81.485 E.07531
G1 X137.565 Y82.103 E.05524
G1 X138.384 Y82.789 E.05393
G1 X139.127 Y83.516 E.05247
G1 X140.306 Y84.902 E.09185
G1 X145.605 Y91.925 E.4441
G1 X146.34 Y93.086 E.06936
G1 X146.769 Y94.387 E.06915
G1 X146.896 Y95.372 E.05013
G1 X146.757 Y97.297 E.09742
G1 X141.698 Y115.754 E.96605
G1 X141.068 Y117.222 E.08064
G1 X140.182 Y118.655 E.08505
G1 X139.269 Y119.864 E.07648
G1 X138.126 Y121.066 E.08373
G1 X128.638 Y128.442 E.60665
G1 X127.625 Y129.026 E.05902
G1 X126.502 Y129.415 E.05999
G1 X125.111 Y129.594 E.0708
G1 X123.891 Y129.498 E.06177
G1 X122.739 Y129.178 E.06035
G1 X121.507 Y128.542 E.06999
G1 X113.005 Y121.996 E.54164
G1 X111.874 Y121.066 E.07391
G1 X110.731 Y119.864 E.08373
G1 X109.818 Y118.655 E.07648
G1 X109.085 Y117.506 E.0688
G1 X108.302 Y115.754 E.09687
G1 X103.243 Y97.297 E.96605
G1 X103.091 Y95.839 E.074
G1 X103.231 Y94.387 E.07364
G1 X103.66 Y93.086 E.06915
G1 X103.932 Y92.577 E.02913
G1 X110.152 Y84.333 E.52131
M204 S1000
;WIPE_START
G1 F8640
G1 X110.206 Y84.261 E-.02078
G1 X111.616 Y82.789 E-.47066
G1 X112.435 Y82.103 E-.24668
G1 X113.338 Y81.485 E-.25266
G1 X113.373 Y81.467 E-.00922
;WIPE_END
G1 Z.4 F720
; printing object storm_trooper_keyring.stl id:0 copy 0
G1 X127.35 Y122.31 F10800
G1 Z.2 F720
G1 E1 F1500
M204 S800
;TYPE:External perimeter
;WIDTH:0.748119
G1 F1200
G1 X127.362 Y122.319 E.00088
;WIDTH:0.797179
G1 X127.413 Y122.356 E.00395
;WIDTH:0.846238
G1 X127.464 Y122.393 E.00421
G1 X127.59 Y122.988 E.04063
;WIDTH:0.819795
G1 X127.593 Y123.009 E.00137
;WIDTH:0.829279
G1 X127.581 Y123.571 E.03676
G1 X127.494 Y124.042 E.03132
;WIDTH:0.824888
G1 X127.312 Y124.492 E.03156
G1 X127.053 Y124.896 E.0312
G1 X126.725 Y125.245 E.03114
G1 X126.338 Y125.528 E.03117
;WIDTH:0.825772
G1 X125.885 Y125.743 E.03264
G1 X125.285 Y125.887 E.04017
;WIDTH:0.829279
G1 X124.723 Y125.875 E.03676
G1 X124.252 Y125.787 E.03133
;WIDTH:0.824892
G1 X123.802 Y125.606 E.03154
G1 X123.398 Y125.347 E.0312
G1 X123.049 Y125.019 E.03114
G1 X122.766 Y124.632 E.03117
G1 X122.558 Y124.197 E.03135
G1 X122.427 Y123.707 E.03298
;WIDTH:0.829216
G1 X122.404 Y123.323 E.02515
G1 X122.436 Y122.822 E.03282
;WIDTH:0.814206
G1 X122.548 Y122.394 E.02837
;WIDTH:0.79445
G1 X122.646 Y122.325 E.00749
;WIDTH:0.7463
G1 X122.744 Y122.257 E.00698
;WIDTH:0.69815
G1 X122.842 Y122.189 E.0065
;WIDTH:0.649999
G1 X125 Y122.27 E.10901
G1 X127.063 Y122.181 E.10423
G1 X127.26 Y122.245 E.01046
;WIDTH:0.699059
G1 X127.277 Y122.257 E.00114
M204 S1000
G1 X127.277 Y122.257 F10800
G1 X127.929 Y121.85
M204 S800
;TYPE:Perimeter
;WIDTH:0.649999
G1 F1200
G1 X127.835 Y122.082 E.01264
G1 X127.633 Y121.766 E.01893
G1 X127.289 Y121.599 E.0193
M73 Q2 S13
G1 X127.034 Y121.574 E.01293
G1 X125 Y121.662 E.10277
G1 X122.952 Y121.574 E.10348
G1 X122.698 Y121.599 E.01288
G1 X122.356 Y121.763 E.01915
G1 X122.15 Y122.08 E.01908
G1 X122.005 Y121.731 E.01908
G1 X121.807 Y121.564 E.01308
G1 X121.462 Y121.436 E.01858
M73 P2 R13
G1 X119.848 Y121.204 E.08231
G1 X117.928 Y120.691 E.10032
G1 X116.374 Y120.042 E.08501
G1 X115.124 Y119.29 E.07364
G1 X114.116 Y118.461 E.06588
G1 X113.293 Y117.573 E.06112
G1 X112.603 Y116.643 E.05846
G1 X112.033 Y115.74 E.0539
G1 X111.594 Y114.765 E.05398
G1 X111.274 Y113.56 E.06294
G1 X111.057 Y112.18 E.07052
G1 X110.932 Y110.739 E.07301
G1 X110.881 Y109.343 E.07052
G1 X110.882 Y108.093 E.0631
G1 X110.958 Y105.824 E.1146
G1 X110.822 Y105.489 E.01825
G1 X110.457 Y105.123 E.02609
G1 X110.099 Y104.573 E.03313
G1 X109.82 Y103.998 E.03226
G1 X109.554 Y103.325 E.03653
G1 X109.442 Y102.823 E.02596
G1 X109.371 Y102.287 E.02729
G1 X109.338 Y101.76 E.02665
G1 X109.348 Y100.811 E.04791
G1 X109.424 Y99.98 E.04212
G1 X109.395 Y99.657 E.01637
G1 X109.233 Y99.336 E.01815
G1 X108.975 Y99.111 E.01728
G1 X108.442 Y98.87 E.02953
G1 X107.749 Y98.415 E.04185
G1 X107.392 Y98.082 E.02464
G1 X107.051 Y97.649 E.02782
G1 X106.772 Y97.124 E.03001
G1 X106.584 Y96.485 E.03362
G1 X106.526 Y95.698 E.03983
G1 X106.621 Y94.961 E.03751
G1 X106.818 Y94.446 E.02783
G1 X107.083 Y94.071 E.02318
G1 X107.283 Y93.893 E.01352
G1 X107.828 Y93.517 E.03342
G1 X109.361 Y92.798 E.08547
G1 X109.779 Y92.481 E.02648
G1 X109.977 Y92.269 E.01464
G1 X110.281 Y91.797 E.02834
G1 X110.504 Y91.296 E.02768
G1 X111.217 Y89.174 E.113
G1 X111.436 Y88.627 E.02974
G1 X111.693 Y88.094 E.02987
G1 X112.004 Y87.574 E.03059
G1 X112.397 Y87.023 E.03416
G1 X112.869 Y86.433 E.03814
G1 X113.399 Y85.844 E.04
G1 X113.974 Y85.287 E.04041
G1 X114.577 Y84.79 E.03945
G1 X115.19 Y84.379 E.03725
G1 X115.792 Y84.078 E.03398
G1 X116.36 Y83.9 E.03005
G1 X116.911 Y83.844 E.02796
G1 X117.471 Y83.894 E.02838
G1 X118.014 Y84.029 E.02824
G1 X118.526 Y84.241 E.02797
G1 X119.007 Y84.528 E.02827
G1 X119.46 Y84.889 E.02924
G1 X119.88 Y85.32 E.03038
G1 X120.263 Y85.816 E.03163
G1 X120.604 Y86.372 E.03292
G1 X120.913 Y87.006 E.0356
G1 X121.86 Y89.164 E.11896
G1 X122.337 Y90.069 E.05164
G1 X122.634 Y90.554 E.02871
G1 X123.047 Y91.103 E.03468
G1 X123.609 Y91.628 E.03882
G1 X124.044 Y91.891 E.02566
G1 X124.295 Y91.995 E.01371
G1 X124.821 Y92.102 E.0271
G1 X125.129 Y92.11 E.01555
G1 X125.663 Y92.005 E.02747
G1 X125.956 Y91.891 E.01587
G1 X126.563 Y91.492 E.03667
G1 X127.045 Y90.995 E.03495
G1 X127.452 Y90.429 E.03519
G1 X127.816 Y89.804 E.03651
G1 X128.161 Y89.119 E.03872
G1 X129.087 Y87.006 E.11645
G1 X129.396 Y86.372 E.0356
G1 X129.737 Y85.816 E.03292
G1 X130.12 Y85.32 E.03163
G1 X130.54 Y84.889 E.03038
G1 X130.993 Y84.528 E.02924
G1 X131.474 Y84.241 E.02827
G1 X131.986 Y84.029 E.02797
G1 X132.529 Y83.894 E.02824
G1 X133.089 Y83.844 E.02838
G1 X133.64 Y83.9 E.02796
G1 X134.208 Y84.078 E.03005
G1 X134.81 Y84.379 E.03398
G1 X135.423 Y84.79 E.03725
G1 X136.026 Y85.287 E.03945
G1 X136.601 Y85.844 E.04041
G1 X137.131 Y86.433 E.04
G1 X137.603 Y87.023 E.03814
G1 X137.996 Y87.574 E.03416
G1 X138.307 Y88.094 E.03059
G1 X138.564 Y88.627 E.02987
G1 X138.783 Y89.174 E.02974
G1 X139.531 Y91.385 E.11782
G1 X139.746 Y91.851 E.02591
G1 X140.023 Y92.269 E.02531
G1 X140.221 Y92.481 E.01464
G1 X140.735 Y92.85 E.03194
G1 X141.964 Y93.421 E.06841
G1 X142.423 Y93.674 E.02646
G1 X142.917 Y94.071 E.03199
G1 X143.182 Y94.446 E.02318
G1 X143.379 Y94.961 E.02783
G1 X143.474 Y95.698 E.03751
G1 X143.455 Y95.961 E.01331
G1 X143.416 Y96.485 E.02652
G1 X143.228 Y97.124 E.03362
G1 X142.949 Y97.649 E.03001
G1 X142.608 Y98.082 E.02782
G1 X142.08 Y98.542 E.03535
G1 X141.581 Y98.86 E.02987
G1 X141.025 Y99.111 E.03079
G1 X140.767 Y99.336 E.01728
G1 X140.605 Y99.657 E.01815
G1 X140.576 Y99.98 E.01637
G1 X140.655 Y101.092 E.05627
G1 X140.648 Y101.971 E.04437
G1 X140.596 Y102.531 E.02839
G1 X140.5 Y103.08 E.02813
G1 X140.283 Y103.785 E.03724
G1 X139.901 Y104.573 E.0442
G1 X139.543 Y105.123 E.03313
G1 X139.248 Y105.397 E.02032
G1 X139.073 Y105.704 E.01784
G1 X139.027 Y106.046 E.01742
G1 X139.088 Y107.087 E.05264
G1 X139.118 Y108.092 E.05075
G1 X139.119 Y109.343 E.06315
G1 X139.068 Y110.739 E.07052
G1 X138.943 Y112.18 E.07301
G1 X138.726 Y113.56 E.07052
G1 X138.406 Y114.765 E.06294
G1 X137.967 Y115.74 E.05398
G1 X137.397 Y116.643 E.0539
G1 X136.707 Y117.573 E.05846
G1 X135.884 Y118.461 E.06112
G1 X134.876 Y119.29 E.06588
G1 X133.626 Y120.042 E.07364
G1 X132.072 Y120.691 E.08501
G1 X130.152 Y121.204 E.10032
G1 X128.528 Y121.438 E.08282
G1 X128.285 Y121.508 E.01277
G1 X127.976 Y121.735 E.01935
G1 X127.963 Y121.767 E.00174
M204 S1000
G1 X127.963 Y121.767 F10800
G1 X128.436 Y122.16
M204 S800
;TYPE:External perimeter
;WIDTH:0.748119
G1 F1200
G1 X128.405 Y122.187 E.00241
;WIDTH:0.797179
G1 X128.331 Y122.253 E.00622
;WIDTH:0.846238
G1 X128.256 Y122.32 E.00672
G1 X128.269 Y122.408 E.00594
;WIDTH:0.831582
G1 X128.373 Y123.114 E.0468
;WIDTH:0.829279
G1 X128.36 Y123.665 E.03604
G1 X128.231 Y124.299 E.0423
;WIDTH:0.824865
G1 X127.989 Y124.882 E.04104
G1 X127.646 Y125.404 E.04061
G1 X127.215 Y125.853 E.04047
G1 X126.708 Y126.216 E.04054
;WIDTH:0.825772
G1 X126.189 Y126.464 E.03744
G1 X125.773 Y126.588 E.02826
;WIDTH:0.818933
G1 X125.18 Y126.666 E.03859
;WIDTH:0.829279
G1 X124.629 Y126.653 E.03604
G1 X123.994 Y126.525 E.04236
;WIDTH:0.824885
G1 X123.411 Y126.282 E.04107
G1 X122.889 Y125.94 E.04058
G1 X122.441 Y125.509 E.04042
G1 X122.078 Y125.001 E.0406
G1 X121.812 Y124.43 E.04096
G1 X121.654 Y123.807 E.04179
;WIDTH:0.829216
G1 X121.621 Y123.262 E.0357
;WIDTH:0.835056
G1 X121.719 Y122.379 E.05852
G1 X121.677 Y122.318 E.00488
;WIDTH:0.788792
G1 X121.635 Y122.257 E.00459
;WIDTH:0.742528
G1 X121.594 Y122.196 E.00428
;WIDTH:0.696264
G1 X121.552 Y122.135 E.00402
;WIDTH:0.649999
G1 X121.372 Y122.037 E.01035
G1 X119.726 Y121.8 E.08395
G1 X117.732 Y121.267 E.10419
G1 X116.099 Y120.585 E.08933
G1 X114.773 Y119.788 E.0781
G1 X113.699 Y118.904 E.07022
G1 X112.825 Y117.962 E.06487
G1 X112.101 Y116.986 E.06134
G1 X111.497 Y116.028 E.05717
G1 X111.02 Y114.969 E.05863
G1 X110.679 Y113.685 E.06706
G1 X110.454 Y112.253 E.07317
G1 X110.326 Y110.776 E.07484
G1 X110.274 Y109.354 E.07183
M73 Q3 S13
G1 X110.275 Y108.083 E.06416
G1 X110.306 Y107.061 E.05161
G1 X110.367 Y106.011 E.05309
G1 X110.34 Y105.867 E.0074
M73 P3 R13
G1 X109.992 Y105.521 E.02477
G1 X109.57 Y104.873 E.03904
G1 X109.155 Y104.019 E.04793
G1 X108.97 Y103.493 E.02815
G1 X108.844 Y102.929 E.02917
G1 X108.767 Y102.345 E.02973
G1 X108.731 Y101.776 E.02878
G1 X108.742 Y100.78 E.05028
G1 X108.819 Y99.926 E.04328
G1 X108.789 Y99.764 E.00832
G1 X108.639 Y99.621 E.01046
G1 X108.151 Y99.405 E.02694
G1 X107.373 Y98.894 E.04699
G1 X106.944 Y98.495 E.02957
G1 X106.54 Y97.983 E.03292
G1 X106.206 Y97.354 E.03595
G1 X105.984 Y96.594 E.03997
G1 X105.916 Y95.682 E.04616
G1 X106.028 Y94.811 E.04433
G1 X106.278 Y94.157 E.03534
G1 X106.628 Y93.664 E.03052
G1 X107.056 Y93.282 E.02896
G1 X107.539 Y92.982 E.0287
G1 X109.009 Y92.299 E.08182
G1 X109.425 Y91.987 E.02625
G1 X109.72 Y91.562 E.02612
G1 X109.929 Y91.103 E.02546
G1 X110.647 Y88.964 E.11389
G1 X110.88 Y88.382 E.03165
G1 X111.158 Y87.806 E.03229
G1 X111.495 Y87.242 E.03317
G1 X111.912 Y86.657 E.03626
G1 X112.406 Y86.04 E.0399
G1 X112.962 Y85.423 E.04193
G1 X113.569 Y84.834 E.04269
G1 X114.214 Y84.302 E.0422
G1 X114.884 Y83.854 E.04068
G1 X115.564 Y83.513 E.0384
G1 X116.237 Y83.302 E.0356
G1 X116.908 Y83.234 E.03404
G1 X117.572 Y83.293 E.03365
G1 X118.205 Y83.45 E.03292
G1 X118.799 Y83.697 E.03247
G1 X119.354 Y84.028 E.03262
G1 X119.868 Y84.438 E.03319
G1 X120.339 Y84.921 E.03405
G1 X120.763 Y85.47 E.03502
G1 X121.137 Y86.079 E.03608
G1 X121.464 Y86.752 E.03777
G1 X122.402 Y88.89 E.11785
G1 X122.861 Y89.762 E.04974
G1 X123.124 Y90.197 E.02566
G1 X123.476 Y90.674 E.02992
G1 X123.923 Y91.108 E.03145
G1 X124.456 Y91.409 E.0309
G1 X125.06 Y91.506 E.03088
G1 X125.642 Y91.371 E.03016
G1 X126.134 Y91.063 E.0293
G1 X126.554 Y90.638 E.03016
G1 X126.928 Y90.122 E.03217
G1 X127.275 Y89.531 E.0346
G1 X127.605 Y88.875 E.03707
G1 X128.536 Y86.752 E.11702
G1 X128.863 Y86.079 E.03777
G1 X129.237 Y85.47 E.03608
G1 X129.661 Y84.921 E.03502
G1 X130.132 Y84.438 E.03405
G1 X130.646 Y84.028 E.03319
G1 X131.201 Y83.697 E.03262
G1 X131.795 Y83.45 E.03247
G1 X132.428 Y83.293 E.03292
G1 X133.092 Y83.234 E.03365
G1 X133.763 Y83.302 E.03404
G1 X134.436 Y83.513 E.0356
G1 X135.116 Y83.854 E.0384
G1 X135.786 Y84.302 E.04068
G1 X136.431 Y84.834 E.0422
G1 X137.038 Y85.423 E.04269
G1 X137.594 Y86.04 E.04193
G1 X138.088 Y86.657 E.0399
G1 X138.505 Y87.242 E.03626
G1 X138.842 Y87.806 E.03317
G1 X139.12 Y88.382 E.03229
G1 X139.353 Y88.964 E.03165
G1 X140.077 Y91.119 E.11476
G1 X140.288 Y91.575 E.02536
G1 X140.575 Y91.987 E.02535
G1 X140.991 Y92.299 E.02625
G1 X142.461 Y92.982 E.08182
G1 X142.944 Y93.282 E.0287
G1 X143.372 Y93.664 E.02896
G1 X143.722 Y94.157 E.03052
G1 X143.972 Y94.811 E.03534
G1 X144.084 Y95.682 E.04433
G1 X144.06 Y96.006 E.0164
G1 X144.016 Y96.594 E.02976
G1 X143.794 Y97.354 E.03997
G1 X143.46 Y97.983 E.03595
G1 X143.228 Y98.277 E.0189
G1 X142.791 Y98.742 E.03221
G1 X142.358 Y99.089 E.02801
G1 X141.857 Y99.402 E.02982
G1 X141.361 Y99.621 E.02737
G1 X141.233 Y99.726 E.00836
G1 X141.181 Y99.926 E.01043
G1 X141.258 Y100.78 E.04328
G1 X141.269 Y101.776 E.05028
G1 X141.233 Y102.345 E.02878
G1 X141.156 Y102.929 E.02973
G1 X141.03 Y103.493 E.02917
G1 X140.845 Y104.019 E.02815
G1 X140.43 Y104.873 E.04793
G1 X140.008 Y105.521 E.03904
G1 X139.684 Y105.825 E.02243
G1 X139.633 Y106.011 E.00974
G1 X139.694 Y107.061 E.05309
G1 X139.725 Y108.083 E.05161
G1 X139.726 Y109.354 E.06416
G1 X139.674 Y110.776 E.07183
G1 X139.546 Y112.253 E.07484
G1 X139.321 Y113.685 E.07317
G1 X138.98 Y114.969 E.06706
G1 X138.503 Y116.028 E.05863
G1 X137.899 Y116.986 E.05717
G1 X137.175 Y117.962 E.06134
G1 X136.301 Y118.904 E.06487
G1 X135.227 Y119.788 E.07022
G1 X133.901 Y120.585 E.0781
G1 X132.268 Y121.267 E.08933
G1 X130.274 Y121.8 E.10419
G1 X128.554 Y122.053 E.08776
;WIDTH:0.699059
G1 X128.503 Y122.1 E.00378
M204 S1000
;WIPE_START
G1 F8640
G1 X128.436 Y122.16 E-.02077
G1 X128.405 Y122.187 E-.00949
G1 X128.331 Y122.253 E-.0229
G1 X128.256 Y122.32 E-.02322
G1 X128.269 Y122.408 E-.02054
G1 X128.373 Y123.114 E-.16478
G1 X128.36 Y123.665 E-.12726
G1 X128.231 Y124.299 E-.14939
G1 X127.989 Y124.882 E-.14575
G1 X127.646 Y125.404 E-.14422
G1 X127.215 Y125.853 E-.14371
G1 X127.116 Y125.924 E-.02797
;WIPE_END
G1 Z.4 F720
G1 X137.885 Y87.861 F10800
G1 Z.2 F720
G1 E1 F1500
M204 S800
;TYPE:Solid infill
;WIDTH:0.654624
G1 F1200
G1 X135.682 Y85.672 E.15796
G1 X135.114 Y85.205 E.0374
G1 X134.55 Y84.826 E.03456
M73 P3 R12
G1 X134.014 Y84.558 E.03048
G1 X133.58 Y84.422 E.02313
G1 X138.157 Y88.999 E.32923
G1 X138.299 Y89.352 E.01935
G1 X138.632 Y90.339 E.05298
G1 X132.691 Y84.398 E.42735
G1 X132.147 Y84.52 E.02836
G1 X132.007 Y84.579 E.00773
G1 X139.092 Y91.664 E.50964
G1 X139.293 Y92.099 E.02437
G1 X139.628 Y92.606 E.03091
G1 X139.822 Y92.821 E.01473
M73 Q4 S13
G1 X140.368 Y93.239 E.03498
G1 X140.932 Y93.504 E.0317
G1 X142.928 Y95.5 E.14358
G1 X142.956 Y95.712 E.01088
G1 X142.908 Y96.345 E.03229
G1 X131.431 Y84.868 E.82556
G1 X131.287 Y84.954 E.00853
M73 P4 R12
G1 X130.933 Y85.236 E.02302
G1 X142.706 Y97.008 E.84682
G1 X142.515 Y97.366 E.02064
G1 X142.376 Y97.543 E.01145
G1 X130.502 Y85.669 E.85412
G1 X130.13 Y86.162 E.03141
