; generated by PrusaSlicer 2.8.0+win64 on 2024-08-29 at 15:48:28 UTC


;
;
; 

; external perimeters extrusion width = 0.65mm
; perimeters extrusion width = 0.65mm
; infill extrusion width = 0.65mm
; solid infill extrusion width = 0.65mm
; top infill extrusion width = 0.60mm
; first layer extrusion width = 0.65mm

M73 P0 R9
M73 Q0 S9
M201 X1000 Y1000 Z200 E5000 ; sets maximum accelerations, mm/sec^2
M203 X200 Y200 Z12 E120 ; sets maximum feedrates, mm / sec
M204 S1250 T1250 ; sets acceleration (S) and retract acceleration (R), mm/sec^2
M205 X8.00 Y8.00 Z0.40 E4.50 ; sets the jerk limits, mm/sec
M205 S0 T0 ; sets the minimum extruding and travel feed rate, mm/sec

; printing object Dino+Chrome.stl id:0 copy 0
; stop printing object Dino+Chrome.stl id:0 copy 0

;TYPE:Custom
M862.3 P "MK3S" ; printer model check
M862.1 P0.6 ; nozzle diameter check
M115 U3.14.0 ; tell printer latest fw version
G90 ; use absolute coordinates
M83 ; extruder relative mode
M104 S240 ; set extruder temp
M140 S85 ; set bed temp
M190 S85 ; wait for bed temp
M109 S240 ; wait for extruder temp
G28 W ; home all without mesh bed level
G80 X99.2599 Y75.8929 W51.4802 H58.211 ; mesh bed levelling

G1 Z0.2 F720
G1 Y-3 F1000 ; go outside print area
G92 E0
G1 X60 E9 F1000 ; intro line
G1 X100 E12.5 F1000 ; intro line

G92 E0
M221 S95
G21 ; set units to millimeters
G90 ; use absolute coordinates
M83 ; use relative distances for extrusion

M900 K0.04 ; Filament gcode LA 1.5
M900 K24 ; Filament gcode LA 1.0




M107
;LAYER_CHANGE
;Z:0.2
;HEIGHT:0.2
G1 E-1 F2100
M73 P1 R9
M73 Q1 S9
G1 Z.4 F720
G1 X111.743 Y77.085 F10800
G1 Z.2 F720
G1 E1 F1500
M204 S800
;TYPE:Skirt/Brim
;WIDTH:0.65
G1 F1200
G1 X113.229 Y76.264 E.0857
G1 X113.599 Y76.232 E.01875
G1 X129.089 Y76.218 E.78192
G1 X129.977 Y76.307 E.04505
G1 X130.576 Y76.506 E.03186
G1 X131.596 Y77.432 E.06954
G1 X150.196 Y114.895 E2.11134
G1 X150.437 Y115.919 E.0531
G1 X150.437 Y125.911 E.50438
G1 X149.882 Y127.41 E.08069
G1 X147.755 Y129.893 E.16504
G1 X146.636 Y130.61 E.06709
G1 X125.309 Y133.762 E1.08826
G1 X124.519 Y133.801 E.03993
M73 P2 R9
M73 Q2 S9
G1 X123.615 Y133.712 E.04585
G1 X122.31 Y133.317 E.06883
G1 X121.32 Y132.762 E.05729
G1 X120.565 Y132.139 E.04941
G1 X100.274 Y112.713 E1.41799
G1 X99.563 Y111.049 E.09134
G1 X99.563 Y97.169 E.70065
G1 X99.914 Y95.948 E.06413
G1 X111.695 Y77.162 E1.11934
M204 S1000
;WIPE_START
G1 F8640
G1 X111.743 Y77.085 E-.02095
G1 X113.229 Y76.264 E-.39201
G1 X113.599 Y76.232 E-.08575
G1 X115.77 Y76.23 E-.50129
;WIPE_END
G1 Z.4 F720
; printing object Dino+Chrome.stl id:0 copy 0
G1 X128.855 Y121.786 F10800
G1 Z.2 F720
G1 E1 F1500
M204 S800
;TYPE:Perimeter
;WIDTH:0.649999
G1 F1200
G1 X129.057 Y121.632 E.01282
G1 X129.286 Y121.546 E.01235
G1 X129.486 Y121.524 E.01016
G1 X132.215 Y121.524 E.13776
G1 X132.546 Y121.586 E.017
G1 X132.79 Y121.728 E.01425
G1 X132.989 Y121.955 E.01524
G1 X133.108 Y122.254 E.01624
G1 X133.126 Y122.455 E.01019
G1 X133.067 Y125.125 E.13481
G1 X133.026 Y125.376 E.01284
G1 X132.879 Y125.659 E.0161
G1 X132.586 Y125.908 E.01941
G1 X132.171 Y126.015 E.02163
G1 X130.29 Y126.044 E.09496
G1 X129.714 Y126.017 E.02911
M73 Q3 S9
G1 X129.357 Y125.943 E.0184
G1 X129.061 Y125.804 E.01651
G1 X128.798 Y125.514 E.01976
G1 X128.64 Y125.025 E.02594
G1 X128.587 Y124.415 E.03091
G1 X128.576 Y122.435 E.09995
G1 X128.645 Y122.087 E.01791
G1 X128.796 Y121.853 E.01406
M204 S1000
G1 X128.796 Y121.853 F10800
G1 X129.294 Y122.21
M204 S800
;TYPE:External perimeter
G1 F1200
M73 P3 R9
G1 X129.42 Y122.138 E.00733
G1 X129.486 Y122.131 E.00335
G1 X132.215 Y122.131 E.13776
G1 X132.326 Y122.152 E.0057
G1 X132.473 Y122.275 E.00968
G1 X132.519 Y122.441 E.0087
G1 X132.46 Y125.111 E.13481
G1 X132.398 Y125.29 E.00956
G1 X132.209 Y125.404 E.01114
G1 X132.161 Y125.408 E.00243
G1 X130.281 Y125.437 E.09491
G1 X129.744 Y125.411 E.02714
G1 X129.413 Y125.31 E.01747
G1 X129.296 Y125.138 E.0105
G1 X129.208 Y124.64 E.02553
G1 X129.192 Y124.362 E.01406
G1 X129.183 Y122.435 E.09727
G1 X129.245 Y122.279 E.00847
M204 S1000
;WIPE_START
G1 F8640
G1 X129.294 Y122.21 E-.01954
G1 X129.42 Y122.138 E-.03351
G1 X129.486 Y122.131 E-.01533
G1 X132.215 Y122.131 E-.63013
G1 X132.326 Y122.152 E-.02608
G1 X132.473 Y122.275 E-.04426
G1 X132.519 Y122.441 E-.03977
G1 X132.501 Y123.27 E-.19138
;WIPE_END
G1 Z.4 F720
G1 X125.8 Y129.745 F10800
G1 Z.2 F720
G1 E1 F1500
M204 S800
;WIDTH:0.816506
G1 F1200
G1 X125.594 Y129.878 E.01577
;WIDTH:0.816348
G1 X125.208 Y130.029 E.02666
;WIDTH:0.816203
G1 X124.801 Y130.102 E.02659
G1 X124.39 Y130.095 E.02643
G1 X123.984 Y130.007 E.02671
;WIDTH:0.816395
G1 X123.605 Y129.842 E.02659
G1 X123.266 Y129.606 E.02657
;WIDTH:0.816507
G1 X122.979 Y129.309 E.02657
G1 X122.755 Y128.961 E.02662
;WIDTH:0.816342
G1 X122.604 Y128.575 E.02666
;WIDTH:0.8162
G1 X122.531 Y128.168 E.02659
G1 X122.538 Y127.757 E.02643
G1 X122.626 Y127.351 E.02671
;WIDTH:0.81639
G1 X122.791 Y126.972 E.02658
G1 X123.027 Y126.633 E.02657
;WIDTH:0.816508
G1 X123.324 Y126.346 E.02657
G1 X123.672 Y126.122 E.02662
;WIDTH:0.816348
G1 X124.06 Y125.97 E.0268
;WIDTH:0.818358
G1 X124.431 Y125.899 E.02436
;WIDTH:0.818896
G1 X124.877 Y125.904 E.02878
G1 X125.048 Y125.978 E.01202
;WIDTH:0.776672
G1 X125.219 Y126.051 E.01134
;WIDTH:0.734448
G1 X125.391 Y126.125 E.01077
;WIDTH:0.692224
G1 X125.562 Y126.199 E.01006
;WIDTH:0.649999
G1 X125.942 Y126.453 E.02307
G1 X126.217 Y126.737 E.01996
G1 X126.434 Y127.071 E.02011
G1 X126.581 Y127.441 E.0201
;WIDTH:0.69028
G1 X126.619 Y127.612 E.00943
;WIDTH:0.730561
G1 X126.657 Y127.784 E.01007
;WIDTH:0.770842
G1 X126.695 Y127.956 E.01066
;WIDTH:0.811123
G1 X126.733 Y128.128 E.01125
;WIDTH:0.816019
G1 X126.64 Y128.648 E.03396
;WIDTH:0.816388
G1 X126.475 Y129.028 E.02664
G1 X126.239 Y129.367 E.02657
;WIDTH:0.816506
G1 X125.942 Y129.654 E.02657
G1 X125.876 Y129.696 E.00503
M204 S1000
;WIPE_START
G1 F8640
G1 X125.8 Y129.745 E-.02088
G1 X125.594 Y129.878 E-.05662
G1 X125.208 Y130.029 E-.09571
G1 X124.801 Y130.102 E-.09548
G1 X124.39 Y130.095 E-.09491
G1 X123.984 Y130.007 E-.09592
G1 X123.605 Y129.842 E-.09545
G1 X123.266 Y129.606 E-.09538
G1 X122.979 Y129.309 E-.09537
G1 X122.755 Y128.961 E-.09556
G1 X122.604 Y128.575 E-.09571
G1 X122.556 Y128.306 E-.06301
;WIPE_END
G1 Z.4 F720
G1 X128.482 Y79.731 F10800
G1 Z.2 F720
G1 E1 F1500
M204 S800
;TYPE:Perimeter
;WIDTH:0.838624
G1 F1200
G1 X128.294 Y79.731 E.01244
;WIDTH:0.863676
G1 X127.233 Y79.742 E.07241
;WIDTH:0.87881
G1 X127.08 Y79.75 E.01065
M204 S1000
;WIPE_START
G1 F8640
G1 X127.233 Y79.742 E-.03538
G1 X128.294 Y79.731 E-.245
G1 X128.482 Y79.731 E-.04341
;WIPE_END
G1 E-.67621 F2100
G1 Z.4 F720
G1 X126.232 Y80.753 F10800
G1 Z.2 F720
G1 E1 F1500
M204 S800
;WIDTH:0.876048
G1 F1200
G1 X126.208 Y80.586 E.01169
;WIDTH:0.82691
G1 X126.185 Y80.418 E.01105
;WIDTH:0.777772
G1 X126.161 Y80.251 E.01031
;WIDTH:0.728633
G1 X126.138 Y80.084 E.00961
;WIDTH:0.679495
G1 X126.114 Y79.916 E.00898
;WIDTH:0.630356
G1 X126.116 Y79.624 E.01426
G1 X126.408 Y79.624 E.01426
;WIDTH:0.680047
G1 X126.543 Y79.649 E.00727
;WIDTH:0.729738
G1 X126.677 Y79.674 E.00778
;WIDTH:0.779429
G1 X126.811 Y79.699 E.00835
;WIDTH:0.82912
G1 X126.946 Y79.724 E.00898
;WIDTH:0.87881
G1 X127.08 Y79.75 E.00949
G1 X126.987 Y79.825 E.0083
;WIDTH:0.82912
G1 X126.895 Y79.9 E.00776
;WIDTH:0.779429
G1 X126.802 Y79.975 E.00732
;WIDTH:0.729738
G1 X126.709 Y80.05 E.00682
;WIDTH:0.680047
G1 X126.616 Y80.125 E.00633
;WIDTH:0.679495
G1 X126.539 Y80.251 E.00782
;WIDTH:0.728633
G1 X126.463 Y80.376 E.00834
;WIDTH:0.777772
G1 X126.386 Y80.502 E.00902
;WIDTH:0.82691
G1 X126.309 Y80.628 E.00963
;WIDTH:0.876048
G1 X126.279 Y80.677 E.00398
M204 S1000
G1 X126.279 Y80.677 F10800
G1 X126.232 Y80.753
M204 S800
G1 F1200
G1 X126.232 Y80.755 E.00014
;WIDTH:0.883144
G1 X126.206 Y85.744 E.34856
;WIDTH:0.898704
G1 X126.198 Y85.921 E.01261
M204 S1000
;WIPE_START
G1 F8640
G1 X126.206 Y85.744 E-.04091
G1 X126.228 Y81.59 E-.95909
;WIPE_END
G1 Z.4 F720
G1 X116.957 Y79.732 F10800
G1 Z.2 F720
G1 E1 F1500
M204 S800
;WIDTH:0.850214
G1 F1200
G1 X116.357 Y79.733 E.04028
;WIDTH:0.864104
G1 X115.63 Y79.742 E.04964
;WIDTH:0.879336
G1 X115.472 Y79.75 E.011
M204 S1000
;WIPE_START
G1 F8640
G1 X115.63 Y79.742 E-.03653
G1 X116.357 Y79.733 E-.16788
G1 X116.957 Y79.732 E-.13854
;WIPE_END
G1 E-.65705 F2100
G1 Z.4 F720
G1 X114.635 Y80.737 F10800
G1 Z.2 F720
G1 E1 F1500
M204 S800
;WIDTH:0.861406
G1 F1200
G1 X114.613 Y80.572 E.01133
;WIDTH:0.813617
G1 X114.592 Y80.407 E.01066
;WIDTH:0.765827
G1 X114.57 Y80.242 E.01001
;WIDTH:0.718038
G1 X114.548 Y80.078 E.00929
;WIDTH:0.670248
G1 X114.526 Y79.913 E.00868
;WIDTH:0.622458
G1 X114.53 Y79.634 E.01345
;WIDTH:0.666631
G1 X114.983 Y79.644 E.0235
;WIDTH:0.709172
G1 X115.081 Y79.665 E.00555
;WIDTH:0.751713
G1 X115.178 Y79.686 E.00585
;WIDTH:0.794254
G1 X115.276 Y79.708 E.00627
;WIDTH:0.836795
G1 X115.374 Y79.729 E.00662
;WIDTH:0.879336
G1 X115.472 Y79.75 E.00697
G1 X115.397 Y79.812 E.00677
;WIDTH:0.836523
G1 X115.321 Y79.874 E.00647
;WIDTH:0.79371
G1 X115.246 Y79.936 E.00607
;WIDTH:0.750897
G1 X115.171 Y79.998 E.00573
;WIDTH:0.708084
G1 X115.095 Y80.06 E.00542
;WIDTH:0.665271
G1 X115.02 Y80.122 E.00504
;WIDTH:0.670248
G1 X114.943 Y80.245 E.00757
;WIDTH:0.718038
G1 X114.866 Y80.368 E.00815
;WIDTH:0.765827
G1 X114.789 Y80.491 E.00872
;WIDTH:0.813617
G1 X114.712 Y80.614 E.0093
;WIDTH:0.861406
G1 X114.683 Y80.661 E.00376
M204 S1000
G1 X114.683 Y80.661 F10800
G1 X114.635 Y80.737
M204 S800
G1 F1200
G1 X114.635 Y80.759 E.0015
;WIDTH:0.86122
G1 X114.62 Y82.084 E.09016
;WIDTH:0.833469
G1 X114.605 Y83.408 E.08704
;WIDTH:0.82048
G1 X114.613 Y83.601 E.01249
M204 S1000
;WIPE_START
G1 F8640
G1 X114.605 Y83.408 E-.0446
G1 X114.62 Y82.084 E-.30573
G1 X114.635 Y80.759 E-.30597
G1 X114.635 Y80.737 E-.00508
;WIPE_END
G1 E-.33862 F2100
G1 Z.4 F720
G1 X103.044 Y109.872 F10800
G1 Z.2 F720
G1 E1 F1500
M204 S800
;WIDTH:0.739838
G1 F1200
M73 Q4 S9
G1 X103.044 Y106.12 E.21742
M204 S1000
;WIPE_START
G1 F8640
G1 X103.044 Y109.872 E-.86635
;WIPE_END
G1 E-.13365 F2100
G1 Z.4 F720
G1 X135.867 Y116.729 F10800
G1 Z.2 F720
M73 P4 R9
G1 E1 F1500
M204 S800
;WIDTH:0.649999
G1 F1200
G1 X135.933 Y116.805 E.00508
G1 X136.173 Y116.945 E.01403
G1 X136.504 Y117.009 E.01702
G1 X147.001 Y117.047 E.52988
G1 X147.001 Y121.493 E.22443
G1 X147.001 Y124.765 E.16517
G1 X145.938 Y124.752 E.05366
G1 X145.656 Y124.793 E.01438
G1 X145.472 Y124.874 E.01015
G1 X145.257 Y125.046 E.0139
G1 X145.094 Y125.295 E.01502
G1 X145.017 Y125.643 E.01799
G1 X144.98 Y127.335 E.08543
G1 X142.924 Y127.358 E.10379
G1 X127.846 Y127.37 E.76112
G1 X127.482 Y127.47 E.01906
G1 X127.242 Y127.652 E.0152
G1 X127.177 Y127.323 E.01693
G1 X126.995 Y126.838 E.02615
G1 X126.722 Y126.399 E.0261
G1 X126.371 Y126.024 E.02593
G1 X125.952 Y125.723 E.02604
G1 X125.606 Y125.56 E.01931
G1 X125.774 Y125.475 E.0095
G1 X125.904 Y125.353 E.009
G1 X126.076 Y125.067 E.01685
G1 X126.132 Y124.751 E.0162
G1 X126.132 Y111.228 E.68263
G1 X126.119 Y110.673 E.02802
G1 X126.02 Y110.389 E.01518
G1 X125.851 Y110.169 E.014
G1 X125.566 Y109.985 E.01712
G1 X125.221 Y109.917 E.01775
G1 X123.859 Y109.917 E.06875
G1 X123.847 Y108.325 E.08036
G1 X123.766 Y108.073 E.01336
G1 X123.55 Y107.79 E.01797
G1 X123.291 Y107.63 E.01537
G1 X122.948 Y107.563 E.01764
G1 X120.433 Y107.563 E.12695
G1 X120.404 Y106.305 E.06352
G1 X120.31 Y105.923 E.01986
G1 X120.108 Y105.654 E.01698
G1 X119.83 Y105.48 E.01656
G1 X119.505 Y105.415 E.01673
G1 X116.96 Y105.384 E.12848
G1 X116.96 Y103.847 E.07759
G1 X116.878 Y103.469 E.01952
G1 X116.682 Y103.191 E.01717
G1 X116.386 Y103 E.01778
G1 X116.049 Y102.936 E.01732
G1 X114.525 Y102.936 E.07693
G1 X114.525 Y101.574 E.06875
G1 X114.496 Y101.347 E.01155
G1 X114.412 Y101.134 E.01156
G1 X114.205 Y100.881 E.0165
G1 X113.912 Y100.713 E.01705
G1 X113.614 Y100.663 E.01525
G1 X108.488 Y100.673 E.25875
G1 X108.167 Y100.787 E.0172
G1 X107.916 Y101.003 E.01672
G1 X107.76 Y101.29 E.01649
G1 X107.715 Y101.574 E.01451
G1 X107.715 Y102.924 E.06815
G1 X106.172 Y102.921 E.07789
G1 X105.851 Y103.036 E.01721
G1 X105.633 Y103.214 E.01421
G1 X105.466 Y103.486 E.01611
G1 X105.402 Y103.821 E.01722
G1 X105.402 Y105.209 E.07006
G1 X104 Y105.209 E.07077
G1 X103.453 Y105.391 E.0291
;WIDTH:0.694919
G1 X103.249 Y105.755 E.02262
;WIDTH:0.739838
G1 X103.044 Y106.12 E.02426
G1 X103.022 Y105.642 E.02773
;WIDTH:0.694919
G1 X102.999 Y105.164 E.02594
;WIDTH:0.649999
G1 X102.999 Y98.301 E.34644
M73 Q5 S9
G1 X104.267 Y98.301 E.06401
G1 X104.586 Y98.243 E.01637
G1 X104.769 Y98.15 E.01036
G1 X104.976 Y97.961 E.01415
G1 X105.145 Y97.633 E.01863
G1 X105.177 Y97.409 E.01142
G1 X105.208 Y95.92 E.07518
G1 X106.68 Y95.903 E.07431
G1 X107.046 Y95.822 E.01892
G1 X107.312 Y95.638 E.01633
M73 P5 R9
G1 X107.499 Y95.37 E.0165
G1 X107.58 Y95.012 E.01853
G1 X107.61 Y93.593 E.07165
G1 X108.987 Y93.593 E.06951
G1 X109.314 Y93.533 E.01678
G1 X109.636 Y93.321 E.01946
G1 X109.823 Y93.046 E.01679
G1 X109.898 Y92.682 E.01876
G1 X109.898 Y91.224 E.0736
G1 X111.315 Y91.194 E.07154
G1 X111.642 Y91.126 E.01686
G1 X111.908 Y90.958 E.01588
G1 X112.123 Y90.665 E.01835
G1 X112.206 Y90.304 E.0187
G1 X112.236 Y88.966 E.06756
G1 X113.574 Y88.966 E.06754
G1 X113.787 Y88.95 E.01078
G1 X114.044 Y88.858 E.01378
G1 X114.33 Y88.619 E.01881
G1 X114.484 Y88.327 E.01666
G1 X114.525 Y88.056 E.01384
G1 X114.527 Y84.407 E.1842
;WIDTH:0.69262
G1 X114.548 Y84.206 E.01092
;WIDTH:0.73524
G1 X114.57 Y84.004 E.0117
;WIDTH:0.77786
G1 X114.591 Y83.803 E.01235
;WIDTH:0.82048
G1 X114.613 Y83.601 E.01314
G1 X114.72 Y83.739 E.01129
;WIDTH:0.77786
G1 X114.827 Y83.877 E.01067
;WIDTH:0.73524
G1 X114.934 Y84.015 E.01005
;WIDTH:0.69262
G1 X115.041 Y84.153 E.00943
;WIDTH:0.649999
G1 X115.594 Y84.34 E.02947
G1 X116.984 Y84.34 E.07017
G1 X117.014 Y85.757 E.07154
G1 X117.075 Y86.066 E.0159
G1 X117.225 Y86.321 E.01493
G1 X117.557 Y86.571 E.02098
G1 X117.905 Y86.648 E.01799
G1 X119.338 Y86.679 E.07235
G1 X119.368 Y88.031 E.06826
G1 X119.388 Y88.201 E.00864
G1 X119.486 Y88.461 E.01403
G1 X119.651 Y88.671 E.01348
G1 X119.914 Y88.845 E.01592
G1 X120.258 Y88.921 E.01778
G1 X122.2 Y88.964 E.09805
G1 X123.116 Y88.965 E.04624
G1 X123.464 Y88.82 E.01903
G1 X123.659 Y88.638 E.01346
G1 X123.805 Y88.379 E.01501
G1 X123.859 Y88.074 E.01564
G1 X123.859 Y86.677 E.07052
G1 X125.199 Y86.648 E.06766
G1 X125.737 Y86.457 E.02882
;WIDTH:0.69974
G1 X125.829 Y86.35 E.00771
;WIDTH:0.749481
G1 X125.921 Y86.243 E.00829
;WIDTH:0.799222
G1 X126.013 Y86.136 E.00887
;WIDTH:0.848963
G1 X126.105 Y86.028 E.00951
;WIDTH:0.898704
G1 X126.198 Y85.921 E.01009
G1 X126.222 Y86.086 E.01186
;WIDTH:0.848963
G1 X126.246 Y86.25 E.01111
;WIDTH:0.799222
G1 X126.27 Y86.415 E.01049
;WIDTH:0.749481
G1 X126.294 Y86.579 E.00974
;WIDTH:0.69974
G1 X126.318 Y86.744 E.00911
;WIDTH:0.649999
G1 X126.302 Y90.323 E.18067
G1 X126.379 Y90.692 E.01903
G1 X126.599 Y91 E.01911
G1 X126.862 Y91.167 E.01573
G1 X127.201 Y91.237 E.01747
G1 X128.558 Y91.255 E.06851
G1 X128.587 Y92.611 E.06846
G1 X128.626 Y92.942 E.01682
G1 X128.793 Y93.258 E.01804
G1 X129.067 Y93.484 E.01793
G1 X129.499 Y93.593 E.02249
G1 X130.93 Y93.593 E.07224
G1 X130.93 Y96.172 E.13018
G1 X130.945 Y96.336 E.00831
G1 X131.062 Y96.646 E.01673
G1 X131.284 Y96.893 E.01676
G1 X131.577 Y97.044 E.01664
G1 X131.841 Y97.083 E.01347
G1 X133.208 Y97.083 E.069
G1 X133.256 Y104.398 E.36926
G1 X133.394 Y104.75 E.01909
G1 X133.602 Y104.973 E.01539
;WIDTH:0.693323
G1 X133.737 Y105.041 E.00817
;WIDTH:0.736647
G1 X133.873 Y105.11 E.0088
;WIDTH:0.779971
G1 X134.009 Y105.178 E.00932
;WIDTH:0.823294
G1 X134.144 Y105.247 E.00984
G1 X134.009 Y105.315 E.00981
;WIDTH:0.779971
G1 X133.873 Y105.383 E.00932
;WIDTH:0.736647
G1 X133.737 Y105.452 E.0088
;WIDTH:0.693323
G1 X133.601 Y105.52 E.00822
;WIDTH:0.649999
G1 X133.393 Y105.742 E.01536
G1 X133.289 Y105.958 E.0121
G1 X133.243 Y106.244 E.01462
G1 X133.256 Y111.383 E.25941
G1 X133.355 Y111.667 E.01518
G1 X133.525 Y111.887 E.01403
G1 X133.739 Y112.039 E.01325
G1 X134.149 Y112.139 E.0213
G1 X135.511 Y112.145 E.06875
;WIDTH:0.694488
G1 X135.718 Y112.168 E.01128
;WIDTH:0.738977
G1 X135.925 Y112.191 E.01205
;WIDTH:0.783466
G1 X136.132 Y112.215 E.01283
;WIDTH:0.827954
